X: 7802
T: Come To The Fair
R: waltz
M: 3/4
K: Gmajor
|:G2G3G|G2A2A2|F2D3D|D2E2F2|G6|d6|c2B2A2|1 G4 (3DEF:|2 G4 GA||
B2B3B|B2A2G2|A2A3A|A2G2F2|G2G3G|G2F2E2|F2G2A2|
B6|G6|F2D3E|F2D3E|F2D3E|F2A3F|E6|D6|
G2G3G|G2A2G2|F2D3D|D2E2F2|G6|d6|d2c2B2|c6|
c2B2A2|B6|B2A2G2|A6|A2G2F2|G2A2G2|F4E2|D2E2F2|
G6|d6|c2B2A2|G6||

